X: 26425
T: Merry Sisters, The
R: reel
M: 4/4
K: Edorian
dc|BE{G}E{F}E Bd c/{d}c/A|{c}BE{G}E{F}E dAFA|
BE{f}ec d2cA|Be{f}ed BAFA|Be{f}ec dcdA|
B3/2{c}B/{A}Bc dAFA|Be{f}ec d2dA|Be{f}ec defg|
af .g/.f/e fded|BABc dAFA|BdcA {c}BAFA|BE{G}E{F}E BEFA|
B3/2{c}B/{A}BA B3/2{c}B/{A}Bc|dD{G}D{F}D ADFA|BdcA {c}BAFA|
BE{G}E{F}E {c}BAFA|D2.E/.F/A d2eg|fdec dAFA||

